X: 1718
T: Mist Over the Valley
C:Cameron Hibbs, Melbourne, Vic
B: australian traditional tunes wiki
M:3/4
L:1/4
R: Waltz
Q: 1/4=100
K:G
V:1 
|:"G"d>cB/A/|"Am"A2A|"C"c2d|"Em"B3|"G"G>A B/A/|"C"E3|1"D7"DFG|A3:|2"D7"DGF|"G"G3||
|:"Bm"d>c B/A/|"C"g2 g|"D7"f>ga|"C"e2e|"Bm"d>c B/A/|"Em"B>c B|1"D7"AGF|A3:|2"D7"AGF|"G"G3||
% abcbook-tune_id 6342d53a0ff3e63da8c7abae


% abcbook-boost 0
% abcbook-tablature 
% abcbook-transpose 
% abcbook-lastupdated 1665324379860
% abcbook-soundfonts 
% abcbook-repeats 1
% NFF Book 2009

